X:1
T:Sailing Home
T:Sailing Home
T:Julian Henry McNiel
T:Julian Henry (Sharp) McNiel, 1899
T:Public Domain Courtesy of the Cyber Hymnal™
T:Public Domain Courtesy of the Cyber Hymnal™
C:Julian Henry McNiel
Z:Public Domain
Z:Courtesy of the Cyber Hymnal™
%%score ( 1 2 ) ( 3 4 )
L:1/8
Q:1/4=105
M:4/4
K:G
V:1 treble 
V:2 treble 
V:3 bass 
V:4 bass 
V:1
 [B,D]>[B,D] | [DG]2 [DG]2 [DG]>[DF] [DG]>[DA] | [GB]6 [GB]>[Gc] | [Gd]3 [GB] G2 [GB]2 | %4
w: 1.~We are|sail- ing o’er the surg- ing|tide To a|home where joys ne’er|
w: 2.~We are|sail- ing to that hap- py|shore Where is|felt no grief nor|
w: 3.~Sail- ing|home, we swift- ly on- ward|sweep, Cheered by|Hea- ven’s bea- con|
 [FA]6 [B,D]>[B,D] | [DG]2 [DG]2 [DG]>[B,G] [DA]>[=FB] | [Ec]6 [Ge]>[Ge] | [Gd]3 [GB] [GB]2 [FA]2 | %8
w: die; Trust- ing|Je- sus on- ly as our|guide, We shall|reach it by and|
w: pain; Meet- ing|there our loved ones gone be-|fore, We shall|ne- ver part a-|
w: light; Je- sus|guides us safe- ly o’er the|deep, To that|ha- ven calm and|
 G6 ||"^Refrain" [GB]>[Ac] | d4- [Gd]>[DB] [DA]>[DG] | [EG]6 [DG]>[DA] | %12
w: by.|Sail- ing|home! we’re sail- ing home;|* By and|
w: gain.||||
w: bright.||||
 [DB]4- [DB]>[Gd] [Gd]>[GB] | [FA]6 [GB]>[Ac] | d4- [Gd]>[DB] [CA]>[B,G] | [Ec]6 [Ge]>[Ge] | %16
w: by * we’ll an- chor|there; Sail- ing|home! we’re sail- ing home!|* Life’s un-|
w: ||||
w: ||||
 [Gd]3 [GB] [GB]2 [FA]2 | G6 |] %18
w: fad- ing crown to|wear.|
w: ||
w: ||
V:2
 x2 | x8 | x8 | x4 G2 x2 | x8 | x8 | x8 | x8 | G6 || x2 | B2 G3/2 G/ x4 | x8 | x8 | x8 | %14
 B2 G3/2 G/ x4 | x8 | x8 | G6 |] %18
V:3
 G,>G, | [G,B,]2 [G,B,]2 [G,B,]>[G,A,] [G,B,]>[G,C] | [G,D]6 G,>[G,A,] | %3
w: ~ ~|~ ~ ~ ~ ~ ~|~ ~ ~|
 [G,B,]3 [G,D] [B,D]2 [G,D]2 | [D,D]6 G,>G, | [G,B,]2 [G,B,]2 [G,B,]>G, [D,F,]>G, | %6
w: ~ ~ ~ ~|~ ~ ~|~ ~ ~ ~ ~ ~|
 [C,G,]6 [C,C]>[C,C] | [D,B,]3 [D,D] [D,D]2 [D,C]2 | [G,,G,B,]6 || z2 | %10
w: ~ ~ ~|~ ~ ~ ~|~||
 z2 [G,B,]>[G,B,] [G,B,]>[G,,G,] [A,,F,]>[C,E,] | [C,G,]2 [C,C]>[C,C] [C,C]2 [B,,G,]>[D,F,] | %12
w: Sail- ing home! ~ ~ ~|~ sail- ing home; By and|
 G,2 G,>G, G,>[G,B,] [B,D]>[G,D] | [D,D]2 [D,D]>[D,D] [D,D]2 z2 | %14
w: by, by and by we’ll an- chor|there, safe- ly there;|
 z2 [G,B,]>[G,B,] [G,B,]>G, [D,F,]>[E,G,] | [C,G,]2 [C,G,]>[C,G,] [C,G,]2 [C,C]>[C,C] | %16
w: Sail- ing home! we’re sail- ing|home, sail- ing home! * *|
 [D,B,]3 [D,D] [D,D]2 [D,C]2 | [G,,G,B,]6 |] %18
w: ||
V:4
 G,>G, | x8 | x6 G,3/2 x/ | x8 | x6 G,>G, | x11/2 G,/ x G,/ x/ | x8 | x8 | x6 || x2 | x8 | x8 | %12
 G,2 G,>G, G,3/2 x5/2 | x8 | x11/2 G,/ x2 | x8 | x8 | x6 |] %18

